X: 8
T: Over the Waterfall
P: piffero primo a0459
O: de Greg Rice
F: http://ancients.sudburymuster.org/mus/ssp/pdf/involuntaryF.pdf
Z: 2019 John Chambers <jc:trillian.mit.edu>
M: 2/4
L: 1/16
K: D
de |\
f2a2 gfe2 | d2B2 A2de | f2a2 gfe2 | d4 d2de |\
f2a2 gfe2 | d2B2 A2AB | =c3c B2A2 | G4 G2 :|
|: FG |\
A2A2 B2B2 | ABAG F2FG | A2d2 cde2 | d4 d2FG |\
A2A2 B2B2 | ABAG F2FG | A2A2 GFE2 | D4 D2 :|


